app/dist/common/images/northwest-bancshares.svg

<svg height="18" width="18" xmlns="http://www.w3.org/2000/svg"><path d="m0 0h18v18h-18z" fill="#f0f3fa"/><path d="m5 11.676v-.053a.34.34 0 0 1 0 .053zm0 0v.76c0 .312.252.564.563.564h6.874a.563.563 0 0 0 .563-.563v-6.874a.563.563 0 0 0 -.563-.563h-.451c-.499.082-1.216.202-1.944.479-.945.36-1.859.845-2.704 1.634-.724.676-1.228 1.324-1.803 2.76a11.275 11.275 0 0 0 -.535 1.803z" fill="#009055"/><path d="m11.97 5c-1.459.07-4.102.711-5.59 2.704-1.214 1.627-1.323 3.17-1.367 3.806l-.013.152v-.006-6.093c0-.31.252-.563.563-.563z" fill="#89c75a"/><path d="m11 7v4h-.933l-2.067-2.416v2.416h-1v-4h1.067l1.933 2.335v-2.335z" fill="#fff"/></svg>

<!-- by TradingView --><svg width="18" height="18" xmlns="http://www.w3.org/2000/svg"><path fill="#F0F3FA" d="M0 0h18v18H0z"/><path d="M5 11.676v-.053a.34.34 0 010 .053zM5 11.676v.76c0 .312.252.564.563.564h6.874a.563.563 0 00.563-.563V5.563A.563.563 0 0012.437 5h-.451c-.499.082-1.216.202-1.944.479-.945.36-1.859.845-2.704 1.634-.724.676-1.228 1.324-1.803 2.76A11.275 11.275 0 005 11.676z" fill="#009055"/><path d="M11.97 5c-1.459.07-4.102.711-5.59 2.704-1.214 1.627-1.323 3.17-1.367 3.806L5 11.662 5 11.656V5.563c0-.31.252-.563.563-.563h6.407z" fill="#89C75A"/><path d="M11 7v4h-.933L8 8.584V11H7V7h1.067L10 9.335V7h1z" fill="#fff"/></svg>
